logo.svg

<svg viewBox="89 108 392 91" xmlns="http://www.w3.org/2000/svg"><path d="M159.178 155.888c0-2.035-.228-4.193-.567-6.228 0 0 0 0 0 0s0 0 0 0 0 0 0 0 0 0 0 0c-1.927-9.528-8.157-17.788-16.995-22.616v-14.358c0-3.051-2.152-5.465-4.872-5.465h-25.491c-2.72 0-4.872 2.414-4.872 5.465v14.484c-8.383 4.576-14.616 12.327-16.767 21.349 0 0 0 0 0 0s0 0 0 0 0 0 0 0 0 0 0 0c-.567 2.414-.907 4.827-.907 7.369 0 11.689 5.891 24.142 14.729 31.638a5.858 5.858 0 00-1.358 2.669l-.342 1.907c-.341 1.396 0 2.796.793 3.939.907 1.269 2.266 1.905 3.966 1.905h35.009c1.586 0 3.058-.76 3.964-1.905.793-1.143 1.02-2.543.793-3.81l-.34-1.907c-.227-1.017-.679-1.907-1.359-2.543 8.724-7.751 14.616-20.075 14.616-31.893zm-48.264-43.202c0-.255.113-.382.339-.382h25.377c.228 0 .342.127.342.382v12.451h-26.058v-12.451zm.339 17.661h25.377c8.271 3.432 14.275 9.912 16.769 17.792h-.113c-.34 0-.679 0-1.021.125H150.001c-5.667 0-8.385-1.143-11.216-2.288-3.173-1.269-6.346-2.541-12.804-2.541-6.343 0-9.63 1.272-12.803 2.541-2.945 1.145-5.663 2.288-11.216 2.288h-1.813c-.338 0-.793 0-1.13-.125h-.23c-.451 0-.791-.13-1.132-.13h-.34c-.341 0-.567-.126-.792-.126h-.228c-.339 0-.679-.126-.905-.255h-.227c-.114 0-.226-.126-.34-.126 2.492-7.626 8.497-13.851 16.428-17.155zm30.136 62.517h-35.12l.338-1.397c.113-.255.68-.764 1.359-.764h31.951c.793 0 1.36.509 1.36.764l.339 1.524c0-.127-.112-.127-.227-.127zm-2.265-7.369h-30.363c-9.177-6.227-15.523-18.299-15.523-29.607 0-1.143.114-2.414.228-3.557.225 0 .339.126.565.126h.229c.338.127.679.127 1.132.255h.34c.341 0 .679.126 1.018.126h.34c.453 0 .908.127 1.36.127h.227c.455 0 .793 0 1.246.128H102.078c6.344 0 9.628-1.272 12.799-2.541 2.947-1.145 5.667-2.288 11.218-2.288 5.663 0 8.383 1.143 11.216 2.288 3.171 1.269 6.344 2.541 12.802 2.541h2.833c.453 0 .907-.128 1.474-.128h.339c.114.888.114 1.907.114 2.797-.228 11.434-6.572 23.506-15.749 29.733z" stroke-miterlimit="5" fill="none" paint-order="fill" stroke="#05aac5"/><path class="st0" d="M124.999 176.395a7.465 7.465 0 01-7.46-7.46c0-4.003 6.752-11.069 7.039-11.366l.354-.372.361.363c.297.297 7.164 7.363 7.164 11.365 0 4.126-3.342 7.47-7.458 7.47zm-.058-17.755a50.892 50.892 0 00-3.066 3.648c-2.185 2.884-3.343 5.177-3.343 6.637 0 3.562 2.904 6.466 6.467 6.466 3.561 0 6.465-2.904 6.465-6.466 0-1.46-1.176-3.753-3.4-6.637a53.26 53.26 0 00-3.123-3.648z" fill="#05aac5"/><path class="st1" d="M124.999 178.781c-5.435 0-9.847-4.423-9.847-9.846 0-5.311 7.411-12.722 7.725-13.027a.509.509 0 01.708 0 .505.505 0 010 .706c-.076.078-7.431 7.431-7.431 12.321 0 4.88 3.975 8.854 8.854 8.854s8.854-3.974 8.854-8.854c0-2.006-1.298-4.776-3.763-8.032-1.891-2.492-3.793-4.385-3.811-4.403a.492.492 0 010-.707.489.489 0 01.706 0c.326.316 7.87 7.822 7.87 13.142-.018 5.423-4.431 9.846-9.865 9.846z" fill="#05aac5"/><path class="st2" d="M124.999 181.168c-6.609 0-11.985-5.376-11.985-11.985 0-2.732 1.374-6.093 4.076-9.981 1.995-2.864 3.954-4.908 4.039-4.993a.5.5 0 01.708-.011.495.495 0 01.009.706c-.018.02-1.995 2.082-3.944 4.881-2.55 3.659-3.897 6.906-3.897 9.398 0 6.055 4.928 10.994 10.994 10.994 6.064 0 10.992-4.93 10.992-10.994 0-2.492-1.356-5.739-3.926-9.398a44.591 44.591 0 00-3.982-4.881.496.496 0 01.011-.706.497.497 0 01.705.011c.334.343 8.185 8.498 8.185 14.974 0 6.609-5.376 11.985-11.985 11.985z" fill="#05aac5"/><path d="M189.479 171.788h-14.94c-2.04 0-3.54-.09-4.5-.27-.96-.18-1.44-.39-1.44-.63l1.8-3.91c.693.12 2.41.23 5.15.33 2.747.107 6.52.16 11.32.16h.85c1.293 0 2.21-.233 2.75-.7.54-.46.81-1.247.81-2.36v-.9c0-1.053-.217-1.803-.65-2.25-.44-.453-1.41-.68-2.91-.68h-10.44c-3.027 0-5.23-.56-6.61-1.68-1.38-1.127-2.07-2.963-2.07-5.51v-.73c0-1.32.247-2.533.74-3.64.493-1.107 1.34-2 2.54-2.68 1.207-.673 2.857-1.01 4.95-1.01h12.25c2.033 0 3.683.107 4.95.32 1.26.207 1.89.43 1.89.67l-.91 3.78c-.773-.087-2.543-.183-5.31-.29-2.76-.107-6.463-.16-11.11-.16l-.49-.04c-1.38 0-2.313.277-2.8.83-.473.553-.727 1.25-.76 2.09v.76c0 .993.277 1.737.83 2.23.553.5 1.477.75 2.77.75h9.99c1.92 0 3.553.193 4.9.58 1.353.393 2.39 1.107 3.11 2.14.72 1.033 1.08 2.557 1.08 4.57v.72c0 2.247-.577 4.06-1.73 5.44-1.153 1.38-3.157 2.07-6.01 2.07zm38.61 0h-24.57v-26.46h27.99v4.32h-22.05v6.21h16.83v4.46h-16.83v7.15h22.23l1.8 3.83c0 .113-.407.223-1.22.33-.807.107-2.2.16-4.18.16zm38.65.45c-1.2 0-2.377-.187-3.53-.56-1.153-.373-2.467-1.297-3.94-2.77l-3.24-3.24c-1.32-1.347-2.767-2.337-4.34-2.97s-3.547-.95-5.92-.95h-1.39v10.04h-5.94v-22.86l-.45-3.64h19.94c1.913 0 3.42.253 4.52.76 1.093.513 1.903 1.18 2.43 2a7.06 7.06 0 011.01 2.63c.147.933.22 1.82.22 2.66v.86c0 .653-.09 1.387-.27 2.2-.18.813-.523 1.61-1.03 2.39-.513.78-1.24 1.437-2.18 1.97-.947.547-2.187.863-3.72.95.393.213.89.537 1.49.97.6.433 1.223.907 1.87 1.42.64.507 1.23.97 1.77 1.39.54.42.96.72 1.26.9 1.08.627 2.043 1.063 2.89 1.31.833.24 1.523.373 2.07.4.533.027.847.04.94.04l-.9 3.65c-.273.093-.723.19-1.35.29-.627.107-1.363.16-2.21.16zm-15.61-14.58c1.14 0 2.16-.023 3.06-.07.9-.04 1.71-.09 2.43-.15 1.32-.153 2.243-.523 2.77-1.11.527-.587.79-1.343.79-2.27v-1.04c0-.953-.257-1.763-.77-2.43-.513-.653-1.43-.98-2.75-.98h-12.28v7.83c1.32.087 2.533.147 3.64.18 1.113.027 2.15.04 3.11.04zm44.77 14.58h-13.99c-2.727 0-4.633-.733-5.72-2.2-1.08-1.473-1.62-3.423-1.62-5.85v-18.86h5.95v19.04c0 1.407.343 2.35 1.03 2.83s1.54.72 2.56.72h9.54c.967 0 1.807-.247 2.52-.74.727-.493 1.09-1.43 1.09-2.81v-19.04h5.93v18.86c0 1.62-.223 3.027-.67 4.22-.447 1.207-1.197 2.147-2.25 2.82s-2.51 1.01-4.37 1.01zm20.21-.45h-5.94v-22.86l-.45-3.6h6.84l10.17 18 10.53-18h6.07v26.46h-5.94v-16.79h-.49l-1.76 3.92-5.66 10.17h-5.45l-5.67-10.17-1.8-3.92h-.45v16.79zm48.825-9.9h-14.4v-5.22h14.4v5.22zm23.8 9.9h-7.2l-12.55-26.41h6.3l8.46 18.22 1.22 3.24h.4l1.17-3.24 8.55-18.22h6.12l-.72 2.7-11.75 23.71zm22.46 0h-5.94v-26.46h5.94v26.46zm10.17 0h-6.57l13.18-26.46h8.87l13.14 26.46h-6.93l-2.65-5.71h-16.12l-2.92 5.71zm10.75-22.41l-6.2 12.28h12.82l-6.17-12.28h-.45zm42.89 22.41h-21.42l.45-3.6v-22.86h5.94v22.14h18.63l1.8 3.83c0 .113-.407.223-1.22.33-.807.107-2.2.16-4.18.16z" style="white-space:pre" fill="none" stroke="#05aac5"/></svg>

<svg viewBox="79.837 99.108 411.622 110.706" xmlns="http://www.w3.org/2000/svg">
  <path d="M 159.178 155.888 C 159.178 153.853 158.95 151.695 158.611 149.66 C 158.611 149.66 158.611 149.66 158.611 149.66 C 158.611 149.66 158.611 149.66 158.611 149.66 C 158.611 149.66 158.611 149.66 158.611 149.66 C 158.611 149.66 158.611 149.66 158.611 149.66 C 156.684 140.132 150.454 131.872 141.616 127.044 L 141.616 112.686 C 141.616 109.635 139.464 107.221 136.744 107.221 L 111.253 107.221 C 108.533 107.221 106.381 109.635 106.381 112.686 L 106.381 127.17 C 97.998 131.746 91.765 139.497 89.614 148.519 C 89.614 148.519 89.614 148.519 89.614 148.519 C 89.614 148.519 89.614 148.519 89.614 148.519 C 89.614 148.519 89.614 148.519 89.614 148.519 C 89.614 148.519 89.614 148.519 89.614 148.519 C 89.047 150.933 88.707 153.346 88.707 155.888 C 88.707 167.577 94.598 180.03 103.436 187.526 C 102.757 188.29 102.302 189.181 102.078 190.195 L 101.736 192.102 C 101.395 193.498 101.736 194.898 102.529 196.041 C 103.436 197.31 104.795 197.946 106.495 197.946 L 141.504 197.946 C 143.09 197.946 144.562 197.186 145.468 196.041 C 146.261 194.898 146.488 193.498 146.261 192.231 L 145.921 190.324 C 145.694 189.307 145.242 188.417 144.562 187.781 C 153.286 180.03 159.178 167.706 159.178 155.888 Z M 110.914 112.686 C 110.914 112.431 111.027 112.304 111.253 112.304 L 136.63 112.304 C 136.858 112.304 136.972 112.431 136.972 112.686 L 136.972 125.137 L 110.914 125.137 L 110.914 112.686 Z M 111.253 130.347 L 136.63 130.347 C 144.901 133.779 150.905 140.259 153.399 148.139 C 153.399 148.139 153.286 148.139 153.286 148.139 C 152.946 148.139 152.607 148.139 152.265 148.264 C 152.04 148.264 151.928 148.264 151.698 148.264 C 151.135 148.264 150.568 148.264 150.001 148.264 C 144.334 148.264 141.616 147.121 138.785 145.976 C 135.612 144.707 132.439 143.435 125.981 143.435 C 119.638 143.435 116.351 144.707 113.178 145.976 C 110.233 147.121 107.515 148.264 101.962 148.264 C 101.509 148.264 100.944 148.264 100.49 148.264 C 100.377 148.264 100.263 148.264 100.149 148.264 C 99.811 148.264 99.356 148.264 99.019 148.139 C 98.903 148.139 98.903 148.139 98.789 148.139 C 98.338 148.139 97.998 148.009 97.657 148.009 C 97.543 148.009 97.431 148.009 97.317 148.009 C 96.976 148.009 96.75 147.883 96.525 147.883 C 96.411 147.883 96.411 147.883 96.297 147.883 C 95.958 147.883 95.618 147.757 95.392 147.628 C 95.279 147.628 95.279 147.628 95.165 147.628 C 95.051 147.628 94.939 147.502 94.825 147.502 C 97.317 139.876 103.322 133.651 111.253 130.347 Z M 141.389 192.864 L 106.495 192.864 C 106.381 192.864 106.381 192.864 106.269 192.864 L 106.607 191.467 C 106.72 191.212 107.287 190.703 107.966 190.703 L 139.917 190.703 C 140.71 190.703 141.277 191.212 141.277 191.467 L 141.616 192.991 C 141.616 192.864 141.504 192.864 141.389 192.864 Z M 139.124 185.495 L 108.761 185.495 C 99.584 179.268 93.238 167.196 93.238 155.888 C 93.238 154.745 93.352 153.474 93.466 152.331 C 93.691 152.331 93.805 152.457 94.031 152.457 C 94.145 152.457 94.145 152.457 94.26 152.457 C 94.598 152.584 94.939 152.584 95.392 152.712 C 95.506 152.712 95.618 152.712 95.732 152.712 C 96.073 152.712 96.411 152.838 96.75 152.838 C 96.864 152.838 96.976 152.838 97.09 152.838 C 97.543 152.838 97.998 152.965 98.45 152.965 C 98.565 152.965 98.677 152.965 98.677 152.965 C 99.132 152.965 99.47 152.965 99.923 153.093 C 100.035 153.093 100.263 153.093 100.377 153.093 C 100.944 153.093 101.509 153.093 102.078 153.093 C 108.422 153.093 111.706 151.821 114.877 150.552 C 117.824 149.407 120.544 148.264 126.095 148.264 C 131.758 148.264 134.478 149.407 137.311 150.552 C 140.482 151.821 143.655 153.093 150.113 153.093 C 150.905 153.093 151.584 153.093 152.265 153.093 C 152.495 153.093 152.719 153.093 152.946 153.093 C 153.399 153.093 153.853 152.965 154.42 152.965 C 154.532 152.965 154.645 152.965 154.759 152.965 C 154.873 153.853 154.873 154.872 154.873 155.762 C 154.645 167.196 148.301 179.268 139.124 185.495 Z" style="stroke-miterlimit: 5; fill: none; paint-order: fill; stroke: rgb(5, 170, 197);"/>
  <path class="st0" d="M 124.999 176.395 C 120.882 176.395 117.539 173.051 117.539 168.935 C 117.539 164.932 124.291 157.866 124.578 157.569 L 124.932 157.197 L 125.293 157.56 C 125.59 157.857 132.457 164.923 132.457 168.925 C 132.457 173.051 129.115 176.395 124.999 176.395 L 124.999 176.395 Z M 124.941 158.64 C 124.349 159.28 123.107 160.663 121.875 162.288 C 119.69 165.172 118.532 167.465 118.532 168.925 C 118.532 172.487 121.436 175.391 124.999 175.391 C 128.56 175.391 131.464 172.487 131.464 168.925 C 131.464 167.465 130.288 165.172 128.064 162.288 C 126.812 160.674 125.543 159.28 124.941 158.64 Z" style="stroke-opacity: 0.6; fill: rgb(5, 170, 197);"/>
  <path class="st1" d="M 124.999 178.781 C 119.564 178.781 115.152 174.358 115.152 168.935 C 115.152 163.624 122.563 156.213 122.877 155.908 C 123.069 155.717 123.394 155.717 123.585 155.908 C 123.777 156.098 123.777 156.425 123.585 156.614 C 123.509 156.692 116.154 164.045 116.154 168.935 C 116.154 173.815 120.129 177.789 125.008 177.789 C 129.887 177.789 133.862 173.815 133.862 168.935 C 133.862 166.929 132.564 164.159 130.099 160.903 C 128.208 158.411 126.306 156.518 126.288 156.5 C 126.088 156.309 126.088 155.993 126.288 155.793 C 126.478 155.592 126.794 155.592 126.994 155.793 C 127.32 156.109 134.864 163.615 134.864 168.935 C 134.846 174.358 130.433 178.781 124.999 178.781 L 124.999 178.781 Z" style="stroke-opacity: 0.6; fill: rgb(5, 170, 197);"/>
  <path class="st2" d="M 124.999 181.168 C 118.39 181.168 113.014 175.792 113.014 169.183 C 113.014 166.451 114.388 163.09 117.09 159.202 C 119.085 156.338 121.044 154.294 121.129 154.209 C 121.322 154.008 121.637 154.008 121.837 154.198 C 122.039 154.389 122.039 154.704 121.846 154.904 C 121.828 154.924 119.851 156.986 117.902 159.785 C 115.352 163.444 114.005 166.691 114.005 169.183 C 114.005 175.238 118.933 180.177 124.999 180.177 C 131.063 180.177 135.991 175.247 135.991 169.183 C 135.991 166.691 134.635 163.444 132.065 159.785 C 130.099 156.986 128.103 154.924 128.083 154.904 C 127.892 154.704 127.892 154.389 128.094 154.198 C 128.293 154.008 128.609 154.008 128.799 154.209 C 129.133 154.552 136.984 162.707 136.984 169.183 C 136.984 175.792 131.608 181.168 124.999 181.168 Z" style="stroke-opacity: 0.6; fill: rgb(5, 170, 197);"/>
  <path d="M 189.479 171.788 L 174.539 171.788 C 172.499 171.788 170.999 171.698 170.039 171.518 C 169.079 171.338 168.599 171.128 168.599 170.888 L 170.399 166.978 C 171.092 167.098 172.809 167.208 175.549 167.308 C 178.296 167.415 182.069 167.468 186.869 167.468 L 187.719 167.468 C 189.012 167.468 189.929 167.235 190.469 166.768 C 191.009 166.308 191.279 165.521 191.279 164.408 L 191.279 163.508 C 191.279 162.455 191.062 161.705 190.629 161.258 C 190.189 160.805 189.219 160.578 187.719 160.578 L 177.279 160.578 C 174.252 160.578 172.049 160.018 170.669 158.898 C 169.289 157.771 168.599 155.935 168.599 153.388 L 168.599 152.658 C 168.599 151.338 168.846 150.125 169.339 149.018 C 169.832 147.911 170.679 147.018 171.879 146.338 C 173.086 145.665 174.736 145.328 176.829 145.328 L 189.079 145.328 C 191.112 145.328 192.762 145.435 194.029 145.648 C 195.289 145.855 195.919 146.078 195.919 146.318 L 195.009 150.098 C 194.236 150.011 192.466 149.915 189.699 149.808 C 186.939 149.701 183.236 149.648 178.589 149.648 L 178.099 149.608 C 176.719 149.608 175.786 149.885 175.299 150.438 C 174.826 150.991 174.572 151.688 174.539 152.528 L 174.539 153.288 C 174.539 154.281 174.816 155.025 175.369 155.518 C 175.922 156.018 176.846 156.268 178.139 156.268 L 188.129 156.268 C 190.049 156.268 191.682 156.461 193.029 156.848 C 194.382 157.241 195.419 157.955 196.139 158.988 C 196.859 160.021 197.219 161.545 197.219 163.558 L 197.219 164.278 C 197.219 166.525 196.642 168.338 195.489 169.718 C 194.336 171.098 192.332 171.788 189.479 171.788 Z M 228.089 171.788 L 203.519 171.788 L 203.519 145.328 L 231.509 145.328 L 231.509 149.648 L 209.459 149.648 L 209.459 155.858 L 226.289 155.858 L 226.289 160.318 L 209.459 160.318 L 209.459 167.468 L 231.689 167.468 L 233.489 171.298 C 233.489 171.411 233.082 171.521 232.269 171.628 C 231.462 171.735 230.069 171.788 228.089 171.788 Z M 266.739 172.238 C 265.539 172.238 264.362 172.051 263.209 171.678 C 262.056 171.305 260.742 170.381 259.269 168.908 L 256.029 165.668 C 254.709 164.321 253.262 163.331 251.689 162.698 C 250.116 162.065 248.142 161.748 245.769 161.748 L 244.379 161.748 L 244.379 171.788 L 238.439 171.788 L 238.439 148.928 L 237.989 145.288 L 257.929 145.288 C 259.842 145.288 261.349 145.541 262.449 146.048 C 263.542 146.561 264.352 147.228 264.879 148.048 C 265.399 148.875 265.736 149.751 265.889 150.678 C 266.036 151.611 266.109 152.498 266.109 153.338 L 266.109 154.198 C 266.109 154.851 266.019 155.585 265.839 156.398 C 265.659 157.211 265.316 158.008 264.809 158.788 C 264.296 159.568 263.569 160.225 262.629 160.758 C 261.682 161.305 260.442 161.621 258.909 161.708 C 259.302 161.921 259.799 162.245 260.399 162.678 C 260.999 163.111 261.622 163.585 262.269 164.098 C 262.909 164.605 263.499 165.068 264.039 165.488 C 264.579 165.908 264.999 166.208 265.299 166.388 C 266.379 167.015 267.342 167.451 268.189 167.698 C 269.022 167.938 269.712 168.071 270.259 168.098 C 270.792 168.125 271.106 168.138 271.199 168.138 L 270.299 171.788 C 270.026 171.881 269.576 171.978 268.949 172.078 C 268.322 172.185 267.586 172.238 266.739 172.238 Z M 251.129 157.658 C 252.269 157.658 253.289 157.635 254.189 157.588 C 255.089 157.548 255.899 157.498 256.619 157.438 C 257.939 157.285 258.862 156.915 259.389 156.328 C 259.916 155.741 260.179 154.985 260.179 154.058 L 260.179 153.018 C 260.179 152.065 259.922 151.255 259.409 150.588 C 258.896 149.935 257.979 149.608 256.659 149.608 L 244.379 149.608 L 244.379 157.438 C 245.699 157.525 246.912 157.585 248.019 157.618 C 249.132 157.645 250.169 157.658 251.129 157.658 Z M 295.899 172.238 L 281.909 172.238 C 279.182 172.238 277.276 171.505 276.189 170.038 C 275.109 168.565 274.569 166.615 274.569 164.188 L 274.569 145.328 L 280.519 145.328 L 280.519 164.368 C 280.519 165.775 280.862 166.718 281.549 167.198 C 282.236 167.678 283.089 167.918 284.109 167.918 L 293.649 167.918 C 294.616 167.918 295.456 167.671 296.169 167.178 C 296.896 166.685 297.259 165.748 297.259 164.368 L 297.259 145.328 L 303.189 145.328 L 303.189 164.188 C 303.189 165.808 302.966 167.215 302.519 168.408 C 302.072 169.615 301.322 170.555 300.269 171.228 C 299.216 171.901 297.759 172.238 295.899 172.238 Z M 316.109 171.788 L 310.169 171.788 L 310.169 148.928 L 309.719 145.328 L 316.559 145.328 L 326.729 163.328 L 337.259 145.328 L 343.329 145.328 L 343.329 171.788 L 337.389 171.788 L 337.389 154.998 L 336.899 154.998 L 335.139 158.918 L 329.479 169.088 L 324.029 169.088 L 318.359 158.918 L 316.559 154.998 L 316.109 154.998 L 316.109 171.788 Z M 364.934 161.888 L 350.534 161.888 L 350.534 156.668 L 364.934 156.668 L 364.934 161.888 Z M 388.734 171.788 L 381.534 171.788 L 368.984 145.378 L 375.284 145.378 L 383.744 163.598 L 384.964 166.838 L 385.364 166.838 L 386.534 163.598 L 395.084 145.378 L 401.204 145.378 L 400.484 148.078 L 388.734 171.788 Z M 411.194 171.788 L 405.254 171.788 L 405.254 145.328 L 411.194 145.328 L 411.194 171.788 Z M 421.364 171.788 L 414.794 171.788 L 427.974 145.328 L 436.844 145.328 L 449.984 171.788 L 443.054 171.788 L 440.404 166.078 L 424.284 166.078 L 421.364 171.788 Z M 432.114 149.378 L 425.914 161.658 L 438.734 161.658 L 432.564 149.378 L 432.114 149.378 Z M 475.004 171.788 L 453.584 171.788 L 454.034 168.188 L 454.034 145.328 L 459.974 145.328 L 459.974 167.468 L 478.604 167.468 L 480.404 171.298 C 480.404 171.411 479.997 171.521 479.184 171.628 C 478.377 171.735 476.984 171.788 475.004 171.788 Z" style="white-space: pre; fill: none; stroke: rgb(5, 170, 197);"/>
</svg>
